X: 10
T: Coen's Memories
R: reel
M: 4/4
L: 1/8
K: Edor
EDB,A, B,EFA|B2eB dBAF|~D3F E2DB,|A,B,DF EDB,A,|
B,E~E2 DEFA|B2eB dBAF|DEFA dBAF|DEFD ~E3:|
|:Be~e2 fedB|e2fe dBAF|~A3B d2fd|edef d2BA|
Be~e2 fedB|e2fe dBAF|DEFA dBAF|DEFD ~E3:|


Tune 558	Setting 28167

